app/assets/images/icons/white-arrow.svg

<svg width="48" height="27" viewBox="0 0 48 27" fill="none" xmlns="http://www.w3.org/2000/svg">
<path d="M46.9931 15.0126C47.6915 14.3141 47.6915 13.1817 46.9931 12.4833L35.6112 1.10144C34.9128 0.402999 33.7804 0.402999 33.0819 1.10144C32.3835 1.79989 32.3835 2.93229 33.0819 3.63074L43.1991 13.7479L33.0819 23.8651C32.3835 24.5636 32.3835 25.696 33.0819 26.3944C33.7804 27.0929 34.9128 27.0929 35.6112 26.3944L46.9931 15.0126ZM0.878662 15.5364L45.7284 15.5364L45.7284 11.9594L0.878662 11.9594L0.878662 15.5364Z" fill="white"/>
</svg>

<svg width="48" height="27" fill="none" viewBox="0 0 48 27" xmlns="http://www.w3.org/2000/svg">
<path d="m46.993 15.013c0.6984-0.6985 0.6984-1.8309 0-2.5293l-11.382-11.382c-0.6984-0.69844-1.8308-0.69844-2.5293 0-0.6984 0.69845-0.6984 1.8308 0 2.5293l10.117 10.117-10.117 10.117c-0.6984 0.6985-0.6984 1.8309 0 2.5293 0.6985 0.6985 1.8309 0.6985 2.5293 0l11.382-11.382zm-46.114 0.5238h44.85v-3.577h-44.85v3.577z" fill="#fff"/>
</svg>
